X: 12663
T: Farsund
R: waltz
M: 3/4
K: Gmajor
|:g3f ed|de ed BG|c3d eg|fg af (3def|
g3f ed|de ed Bd|cd (3efg af|1 g3d Bd:|2 g4 Bd||
|:c3d eg|fg af (3def|g3f ed|de ed BG|
c3d eg|fg af (3def|g3d (3Bcd|1 g4 Bd:|2 g4 cB||
|:AD Dc (3Bcd|ce dc BA|BG d4|d4 cB|
AD Dc (3Bcd|ce dc BA|BG G4|G4 cB|
AD Dc (3Bcd|ce dc BA|BG d4|d4 cB|
AD Dc (3Bcd|ce ec BA|BG cB cd|cB cd ef||

